;FLAVOR:Marlin
;TIME:188
;Filament used: 0.316852m
;Layer height: 0.2
;MINX:91.037
;MINY:109.3
;MINZ:0.3
;MAXX:143.948
;MAXY:125.7
;MAXZ:3.1
;Generated with Cura_SteamEngine main
M140 S60
M105
M190 S60
M104 S220
M105
M109 S220
M82 ;absolute extrusion mode
; AtomStack Cambrian Start G-code
G92 E0 ; Reset Extruder
G28 ; Home all axes
G1 Z2.0 F3000 ; Move Z Axis up little to prevent scratching of Heat Bed
G1 X1 Y20 Z0.2 F5000.0 ; Move to start position
G1 X1 Y200.0 Z0.2 F1500.0 E15 ; Draw the first line
G1 X2 Y200.0 Z0.2 F2000.0 ; Move to side a little
G1 X2 Y20 Z0.3 F1500.0 E30 ; Draw the second line
G92 E0 ; Reset Extruder
G1 Z2.0 F3000 ; Move Z Axis up little to prevent scratching of Heat Bed
G92 E0
G92 E0
G1 F3000 E-2.5
;LAYER_COUNT:15
;LAYER:0
M107
M204 S2000
M205 X15 Y15
G0 F7200 X92.03 Y110.202 Z0.3
G0 X91.037 Y113.152
M205 X12 Y12
;TYPE:SKIRT
G1 F3000 E0
G1 F3600 X91.047 Y112.463 E0.03438
G1 X91.095 Y111.959 E0.05964
G1 X91.221 Y111.47 E0.08483
G1 X91.422 Y111.006 E0.11006
G1 X91.694 Y110.58 E0.13527
G1 X92.03 Y110.202 E0.16051
G1 X92.421 Y109.881 E0.18574
G1 X92.857 Y109.626 E0.21094
G1 X93.329 Y109.444 E0.23618
G1 X93.823 Y109.337 E0.2614
G1 X94.477 Y109.301 E0.29408
G1 X103.575 Y109.3 E0.74798
G1 X104.293 Y109.31 E0.7838
G1 X105.09 Y109.343 E0.8236
G1 X107.882 Y109.422 E0.96295
G1 X110.599 Y109.422 E1.0985
G1 X113.363 Y109.344 E1.23645
G1 X113.882 Y109.318 E1.26238
G1 X114.475 Y109.301 E1.29197
G1 X123.575 Y109.3 E1.74597
G1 X124.281 Y109.31 E1.7812
G1 X125.107 Y109.344 E1.82244
G1 X126.536 Y109.425 E1.89385
G1 X129.283 Y109.502 E2.03095
G1 X132.009 Y109.502 E2.16695
G1 X135.866 Y109.371 E2.35949
G1 X136.733 Y109.326 E2.40281
G1 X138.061 Y109.3 E2.46907
G1 X139.083 Y109.3 E2.52006
G1 X139.754 Y109.309 E2.55354
G1 X140.615 Y109.422 E2.59686
G1 X141.27 Y109.642 E2.63134
G1 X141.886 Y109.967 E2.66608
G1 X142.433 Y110.38 E2.70028
G1 X142.958 Y110.957 E2.7392
G1 X143.249 Y111.371 E2.76444
G1 X143.561 Y112.022 E2.80046
G1 X143.753 Y112.687 E2.83499
G1 X143.814 Y113.164 E2.85898
G1 X143.834 Y113.675 E2.8845
G1 X143.821 Y114.846 E2.94292
G1 X143.823 Y117.586 E3.07962
G1 X143.948 Y121.237 E3.26188
G1 X143.92 Y121.931 E3.29653
G1 X143.848 Y122.431 E3.32173
G1 X143.633 Y123.091 E3.35636
G1 X143.418 Y123.549 E3.3816
G1 X142.983 Y124.175 E3.41963
G1 X142.477 Y124.691 E3.45569
G1 X141.91 Y125.101 E3.4906
G1 X141.328 Y125.387 E3.52295
G1 X140.686 Y125.581 E3.55641
G1 X140.117 Y125.684 E3.58526
G1 X139.117 Y125.7 E3.63516
G1 X94.898 Y125.7 E5.84125
G1 X94.2 Y125.69 E5.87608
G1 X93.697 Y125.643 E5.90128
G1 X93.207 Y125.517 E5.92652
G1 X92.743 Y125.315 E5.95177
G1 X92.317 Y125.043 E5.97699
G1 X91.939 Y124.708 E6.00219
G1 X91.619 Y124.317 E6.02739
G1 X91.364 Y123.88 E6.05264
G1 X91.181 Y123.409 E6.07785
G1 X91.074 Y122.915 E6.10306
G1 X91.038 Y122.462 E6.12573
G1 X91.037 Y113.152 E6.59021
M205 X15 Y15
G1 F3000 E4.09021
;MESH:speedtest.stl
G0 F7200 X93.572 Y113.152
G0 X94.657 Y113.152
G0 X103.809 Y116.928
G0 X134.579 Y117.4
G1 F3000 E6.59021
G0 F7200 X134.579 Y116.994
M205 X12 Y12
;TYPE:WALL-INNER
G1 F3000 X134.42 Y117.072 E6.59905
G1 X134.237 Y117.1 E6.60828
G1 X124.112 Y117.1 E7.11342
G1 X123.817 Y116.929 E7.13043
G1 X123.678 Y116.721 E7.14291
G1 X123.637 Y116.5 E7.15413
G1 X123.637 Y113.1 E7.32376
G1 X114.837 Y113.1 E7.76279
G1 X114.837 Y116.5 E7.93242
G1 X114.796 Y116.721 E7.94363
G1 X114.657 Y116.929 E7.95611
G1 X114.362 Y117.1 E7.97312
G1 X104.112 Y117.1 E8.4845
G1 X103.817 Y116.929 E8.50151
G1 X103.678 Y116.721 E8.51399
G1 X103.637 Y116.5 E8.5252
G1 X103.637 Y113.1 E8.69483
G1 X94.837 Y113.1 E9.13386
G1 X94.837 Y121.9 E9.5729
G1 X139.774 Y121.9 E11.81481
G1 X139.993 Y121.818 E11.82648
G1 X140.118 Y121.669 E11.83618
G1 X140.153 Y121.53 E11.84333
G1 X140.131 Y121.326 E11.85357
G1 X139.665 Y120.733 E11.8912
G1 X139.268 Y120.083 E11.9292
G1 X138.984 Y119.441 E11.96422
G1 X138.747 Y118.665 E12.0047
G1 X138.649 Y117.853 E12.04551
G1 X138.652 Y116.939 E12.0911
G1 X138.851 Y115.92 E12.1429
G1 X139.224 Y114.968 E12.19391
G1 X139.669 Y114.259 E12.23568
G1 X140.011 Y113.744 E12.26652
G1 X140.037 Y113.456 E12.28095
G1 X139.928 Y113.23 E12.29346
G1 X139.663 Y113.101 E12.30817
G1 X137.124 Y113.1 E12.43484
G1 X136.686 Y113.168 E12.45695
G1 X136.322 Y113.282 E12.47598
G1 X136.006 Y113.444 E12.4937
G1 X135.547 Y113.802 E12.52274
G1 X135.19 Y114.254 E12.55148
G1 X135.021 Y114.579 E12.56975
G1 X134.905 Y114.94 E12.58867
G1 X134.838 Y115.383 E12.61102
G1 X134.835 Y116.56 E12.66974
G1 X134.765 Y116.785 E12.6815
G1 X134.579 Y116.994 E12.69546
M205 X15 Y15
G0 F7200 X134.365 Y116.655
M205 X12 Y12
;TYPE:WALL-OUTER
G1 F3000 X134.272 Y116.698 E12.70057
G1 X124.195 Y116.7 E13.20331
G1 X124.037 Y116.555 E13.21401
G1 X124.037 Y112.7 E13.40634
G1 X114.437 Y112.7 E13.88528
G1 X114.437 Y116.555 E14.07761
G1 X114.377 Y116.643 E14.08292
G1 X114.272 Y116.698 E14.08884
G1 X104.195 Y116.7 E14.59158
G1 X104.037 Y116.555 E14.60228
G1 X104.037 Y112.7 E14.79461
G1 X94.437 Y112.7 E15.27355
G1 X94.437 Y122.3 E15.7525
G1 X139.826 Y122.3 E18.01697
G1 X140.078 Y122.232 E18.02999
G1 X140.256 Y122.128 E18.04027
G1 X140.468 Y121.873 E18.05682
G1 X140.552 Y121.564 E18.07279
G1 X140.52 Y121.243 E18.08889
G1 X140.424 Y121.051 E18.0996
G1 X139.979 Y120.485 E18.13552
G1 X139.645 Y119.942 E18.16732
G1 X139.366 Y119.323 E18.2012
G1 X139.143 Y118.603 E18.2388
G1 X139.046 Y117.806 E18.27886
G1 X139.05 Y116.979 E18.32012
G1 X139.235 Y116.03 E18.36835
G1 X139.576 Y115.166 E18.41469
G1 X140.008 Y114.472 E18.45548
G1 X140.279 Y114.112 E18.47796
G1 X140.393 Y113.873 E18.49117
G1 X140.443 Y113.632 E18.50345
G1 X140.435 Y113.378 E18.51613
G1 X140.329 Y113.092 E18.53134
G1 X140.202 Y112.931 E18.54157
G1 X139.947 Y112.763 E18.55681
G1 X139.717 Y112.701 E18.56869
G1 X137.094 Y112.7 E18.69956
G1 X136.595 Y112.777 E18.72475
G1 X136.17 Y112.91 E18.74696
G1 X135.79 Y113.105 E18.76827
G1 X135.263 Y113.516 E18.80161
G1 X134.853 Y114.035 E18.83461
G1 X134.651 Y114.424 E18.85648
G1 X134.514 Y114.848 E18.87871
G1 X134.438 Y115.353 E18.90419
G1 X134.434 Y116.539 E18.96336
G1 X134.365 Y116.655 E18.97009
M205 X15 Y15
G0 F7200 X134.272 Y116.698
G0 X134.174 Y116.698
G0 X134.174 Y117.4
G0 X139.787 Y121.503
M205 X12 Y12
;TYPE:SKIN
G1 F3000 X139.769 Y121.449 E18.97293
G1 X139.315 Y120.86 E19.01003
G1 X138.936 Y120.228 E19.0468
G1 X138.649 Y119.573 E19.08248
G1 X138.391 Y118.746 E19.1257
G1 X138.286 Y117.847 E19.17085
G1 X138.296 Y116.888 E19.2187
G1 X138.503 Y115.821 E19.27293
G1 X138.907 Y114.797 E19.32785
G1 X139.366 Y114.064 E19.37099
G1 X139.664 Y113.62 E19.39767
G1 X139.667 Y113.502 E19.40356
G1 X139.59 Y113.461 E19.40791
G1 X137.154 Y113.461 E19.52944
G1 X136.781 Y113.518 E19.54827
G1 X136.453 Y113.619 E19.56539
G1 X136.203 Y113.748 E19.57943
G1 X135.802 Y114.061 E19.60481
G1 X135.493 Y114.453 E19.62971
G1 X135.355 Y114.712 E19.64435
G1 X135.252 Y115.035 E19.66126
G1 X135.199 Y115.412 E19.68026
G1 X135.192 Y116.653 E19.74217
G1 X135.023 Y117.055 E19.76393
G1 X134.797 Y117.28 E19.77984
G1 X134.554 Y117.404 E19.79345
G1 X134.264 Y117.458 E19.80817
G1 X124.216 Y117.459 E20.30946
G1 X123.933 Y117.406 E20.32383
G1 X123.566 Y117.19 E20.34507
G1 X123.341 Y116.847 E20.36554
G1 X123.28 Y116.539 E20.3812
G1 X123.277 Y113.46 E20.53481
G1 X115.197 Y113.46 E20.93793
G1 X115.193 Y116.661 E21.09763
G1 X115.039 Y117.028 E21.11748
G1 X114.767 Y117.298 E21.1366
G1 X114.414 Y117.458 E21.15594
G1 X104.216 Y117.459 E21.66472
G1 X103.933 Y117.406 E21.67908
G1 X103.566 Y117.19 E21.70033
G1 X103.341 Y116.847 E21.7208
G1 X103.28 Y116.539 E21.73646
G1 X103.277 Y113.46 E21.89007
G1 X95.197 Y113.46 E22.29318
G1 X95.197 Y121.54 E22.6963
G1 X139.72 Y121.54 E24.91756
G1 X139.787 Y121.503 E24.92138
M205 X15 Y15
G0 F7200 X139.073 Y120.231
G0 X138.771 Y119.562
G0 X138.51 Y118.717
G0 X138.406 Y117.826
G0 X138.411 Y116.914
G0 X138.579 Y116.054
G0 X139.279 Y113.823
M205 X12 Y12
G1 F3000 X139.117 Y113.661 E24.93281
M205 X15 Y15
G0 F7200 X139.061 Y114.171
M205 X12 Y12
G1 F3000 X138.551 Y113.661 E24.96879
M205 X15 Y15
G0 F7200 X137.986 Y113.661
M205 X12 Y12
G1 F3000 X138.843 Y114.519 E25.02929
M205 X15 Y15
G0 F7200 X138.651 Y114.892
M205 X12 Y12
G1 F3000 X137.42 Y113.661 E25.11615
M205 X15 Y15
G0 F7200 X136.895 Y113.702
M205 X12 Y12
G1 F3000 X138.492 Y115.299 E25.22882
M205 X15 Y15
G0 F7200 X138.334 Y115.706
M205 X12 Y12
G1 F3000 X136.477 Y113.85 E25.35981
M205 X15 Y15
G0 F7200 X136.124 Y114.062
M205 X12 Y12
G1 F3000 X138.23 Y116.169 E25.50843
M205 X15 Y15
G0 F7200 X138.138 Y116.642
M205 X12 Y12
G1 F3000 X135.835 Y114.339 E25.67092
M205 X15 Y15
G0 F7200 X135.601 Y114.671
M205 X12 Y12
G1 F3000 X138.09 Y117.159 E25.8465
M205 X15 Y15
G0 F7200 X138.087 Y117.722
M205 X12 Y12
G1 F3000 X135.447 Y115.082 E26.03277
M205 X15 Y15
G0 F7200 X135.398 Y115.599
M205 X12 Y12
G1 F3000 X138.142 Y118.343 E26.22637
M205 X15 Y15
G0 F7200 X138.274 Y119.041
M205 X12 Y12
G1 F3000 X135.395 Y116.162 E26.4295
M205 X15 Y15
G0 F7200 X135.377 Y116.709
M205 X12 Y12
G1 F3000 X138.578 Y119.91 E26.65535
G1 X138.648 Y119.98
M205 X15 Y15
G0 F7200 X138.31 Y121.339
M205 X12 Y12
G1 F3000 X134.57 Y117.599 E26.91922
M205 X15 Y15
G0 F7200 X134.946 Y117.41
M205 X12 Y12
G1 F3000 X138.875 Y121.339 E27.19644
M205 X15 Y15
G0 F7200 X139.392 Y121.29
M205 X12 Y12
G1 F3000 X135.211 Y117.109 E27.49143
G1 X135.141 Y117.039
M205 X15 Y15
G0 F7200 X134.061 Y117.656
M205 X12 Y12
G1 F3000 X137.744 Y121.339 E27.75128
M205 X15 Y15
G0 F7200 X137.178 Y121.339
M205 X12 Y12
G1 F3000 X133.496 Y117.656 E28.0111
M205 X15 Y15
G0 F7200 X132.93 Y117.656
M205 X12 Y12
G1 F3000 X136.613 Y121.339 E28.27096
M205 X15 Y15
G0 F7200 X136.047 Y121.339
M205 X12 Y12
G1 F3000 X132.364 Y117.656 E28.53082
M205 X15 Y15
G0 F7200 X131.799 Y117.656
M205 X12 Y12
G1 F3000 X135.481 Y121.339 E28.79064
M205 X15 Y15
G0 F7200 X134.915 Y121.339
M205 X12 Y12
G1 F3000 X131.233 Y117.656 E29.05046
M205 X15 Y15
G0 F7200 X130.667 Y117.656
M205 X12 Y12
G1 F3000 X134.35 Y121.339 E29.31031
M205 X15 Y15
G0 F7200 X133.784 Y121.339
M205 X12 Y12
G1 F3000 X130.101 Y117.656 E29.57017
M205 X15 Y15
G0 F7200 X129.536 Y117.656
M205 X12 Y12
G1 F3000 X133.218 Y121.339 E29.82999
M205 X15 Y15
G0 F7200 X132.653 Y121.339
M205 X12 Y12
G1 F3000 X128.97 Y117.656 E30.08984
M205 X15 Y15
G0 F7200 X128.404 Y117.656
M205 X12 Y12
G1 F3000 X132.087 Y121.339 E30.3497
M205 X15 Y15
G0 F7200 X131.521 Y121.339
M205 X12 Y12
G1 F3000 X127.839 Y117.656 E30.60952
M205 X15 Y15
G0 F7200 X127.273 Y117.656
M205 X12 Y12
G1 F3000 X130.956 Y121.339 E30.86937
M205 X15 Y15
G0 F7200 X130.39 Y121.339
M205 X12 Y12
G1 F3000 X126.707 Y117.656 E31.12923
M205 X15 Y15
G0 F7200 X126.142 Y117.656
M205 X12 Y12
G1 F3000 X129.824 Y121.339 E31.38905
M205 X15 Y15
G0 F7200 X129.259 Y121.339
M205 X12 Y12
G1 F3000 X125.576 Y117.656 E31.64891
M205 X15 Y15
G0 F7200 X125.01 Y117.656
M205 X12 Y12
G1 F3000 X128.693 Y121.339 E31.90876
M205 X15 Y15
G0 F7200 X128.127 Y121.339
M205 X12 Y12
G1 F3000 X124.445 Y117.656 E32.16858
M205 X15 Y15
G0 F7200 X123.755 Y117.532
M205 X12 Y12
G1 F3000 X127.562 Y121.339 E32.43719
M205 X15 Y15
G0 F7200 X126.996 Y121.339
M205 X12 Y12
G1 F3000 X119.317 Y113.66 E32.97898
M205 X15 Y15
G0 F7200 X119.882 Y113.66
M205 X12 Y12
G1 F3000 X123.175 Y116.952 E33.21128
M205 X15 Y15
G0 F7200 X123.076 Y116.287
M205 X12 Y12
G1 F3000 X120.448 Y113.66 E33.39667
M205 X15 Y15
G0 F7200 X121.014 Y113.66
M205 X12 Y12
G1 F3000 X123.076 Y115.722 E33.54215
M205 X15 Y15
G0 F7200 X123.076 Y115.156
M205 X12 Y12
G1 F3000 X121.579 Y113.66 E33.64774
M205 X15 Y15
G0 F7200 X122.145 Y113.66
M205 X12 Y12
G1 F3000 X123.076 Y114.59 E33.71339
M205 X15 Y15
G0 F7200 X123.076 Y114.025
M205 X12 Y12
G1 F3000 X122.711 Y113.66 E33.73914
M205 X15 Y15
G0 F7200 X118.751 Y113.66
M205 X12 Y12
G1 F3000 X126.43 Y121.339 E34.28094
M205 X15 Y15
G0 F7200 X125.865 Y121.339
M205 X12 Y12
G1 F3000 X118.185 Y113.66 E34.82277
M205 X15 Y15
G0 F7200 X117.62 Y113.66
M205 X12 Y12
G1 F3000 X125.299 Y121.339 E35.36456
M205 X15 Y15
G0 F7200 X124.733 Y121.339
M205 X12 Y12
G1 F3000 X117.054 Y113.66 E35.90636
M205 X15 Y15
G0 F7200 X116.488 Y113.66
M205 X12 Y12
G1 F3000 X124.167 Y121.339 E36.44815
M205 X15 Y15
G0 F7200 X123.602 Y121.339
M205 X12 Y12
G1 F3000 X115.923 Y113.66 E36.98995
M205 X15 Y15
G0 F7200 X115.396 Y113.699
M205 X12 Y12
G1 F3000 X123.036 Y121.339 E37.52899
M205 X15 Y15
G0 F7200 X122.47 Y121.339
M205 X12 Y12
G1 F3000 X115.396 Y114.264 E38.02814
M205 X15 Y15
G0 F7200 X115.396 Y114.83
M205 X12 Y12
G1 F3000 X121.905 Y121.339 E38.48738
M205 X15 Y15
G0 F7200 X121.339 Y121.339
M205 X12 Y12
G1 F3000 X115.396 Y115.396 E38.90669
M205 X15 Y15
G0 F7200 X115.396 Y115.961
M205 X12 Y12
G1 F3000 X120.773 Y121.339 E39.2861
M205 X15 Y15
G0 F7200 X120.208 Y121.339
M205 X12 Y12
G1 F3000 X115.396 Y116.527 E39.62562
M205 X15 Y15
G0 F7200 X115.275 Y116.972
M205 X12 Y12
G1 F3000 X119.642 Y121.339 E39.93373
M205 X15 Y15
G0 F7200 X119.076 Y121.339
M205 X12 Y12
G1 F3000 X115.032 Y117.295 E40.21906
M205 X15 Y15
G0 F7200 X114.718 Y117.547
M205 X12 Y12
G1 F3000 X118.511 Y121.339 E40.48664
M205 X15 Y15
G0 F7200 X117.945 Y121.339
M205 X12 Y12
G1 F3000 X114.26 Y117.654 E40.74664
M205 X15 Y15
G0 F7200 X113.694 Y117.654
M205 X12 Y12
G1 F3000 X117.379 Y121.339 E41.00663
M205 X15 Y15
G0 F7200 X116.814 Y121.339
M205 X12 Y12
G1 F3000 X113.129 Y117.654 E41.26663
M205 X15 Y15
G0 F7200 X112.563 Y117.654
M205 X12 Y12
G1 F3000 X116.248 Y121.339 E41.52663
M205 X15 Y15
G0 F7200 X115.682 Y121.339
M205 X12 Y12
G1 F3000 X111.997 Y117.654 E41.78662
M205 X15 Y15
G0 F7200 X111.432 Y117.654
M205 X12 Y12
G1 F3000 X115.116 Y121.339 E42.04658
M205 X15 Y15
G0 F7200 X114.551 Y121.339
M205 X12 Y12
G1 F3000 X110.867 Y117.655 E42.30651
M205 X15 Y15
G0 F7200 X110.301 Y117.655
M205 X12 Y12
G1 F3000 X113.985 Y121.339 E42.56644
M205 X15 Y15
G0 F7200 X113.419 Y121.339
M205 X12 Y12
G1 F3000 X109.735 Y117.655 E42.82636
M205 X15 Y15
G0 F7200 X109.17 Y117.655
M205 X12 Y12
G1 F3000 X112.854 Y121.339 E43.08629
M205 X15 Y15
G0 F7200 X112.288 Y121.339
M205 X12 Y12
G1 F3000 X108.604 Y117.655 E43.34621
M205 X15 Y15
G0 F7200 X108.038 Y117.655
M205 X12 Y12
G1 F3000 X111.722 Y121.339 E43.60614
M205 X15 Y15
G0 F7200 X111.157 Y121.339
M205 X12 Y12
G1 F3000 X107.473 Y117.656 E43.86603
M205 X15 Y15
G0 F7200 X106.908 Y117.656
M205 X12 Y12
G1 F3000 X110.591 Y121.339 E44.12589
M205 X15 Y15
G0 F7200 X110.025 Y121.339
M205 X12 Y12
G1 F3000 X106.342 Y117.656 E44.38574
M205 X15 Y15
G0 F7200 X105.776 Y117.656
M205 X12 Y12
G1 F3000 X109.46 Y121.339 E44.64563
M205 X15 Y15
G0 F7200 X108.894 Y121.339
M205 X12 Y12
G1 F3000 X105.211 Y117.656 E44.90549
M205 X15 Y15
G0 F7200 X104.645 Y117.656
M205 X12 Y12
G1 F3000 X108.328 Y121.339 E45.16534
M205 X15 Y15
G0 F7200 X107.763 Y121.339
M205 X12 Y12
G1 F3000 X104.049 Y117.625 E45.42739
G1 X103.979 Y117.555
M205 X15 Y15
G0 F7200 X103.409 Y117.328
G0 X103.105 Y116.681
M205 X12 Y12
G1 F3000 X100.083 Y113.659 E45.64061
M205 X15 Y15
G0 F7200 X100.648 Y113.659
M205 X12 Y12
G1 F3000 X103.077 Y116.087 E45.81195
M205 X15 Y15
G0 F7200 X103.077 Y115.522
M205 X12 Y12
G1 F3000 X101.214 Y113.659 E45.94339
M205 X15 Y15
G0 F7200 X101.78 Y113.659
M205 X12 Y12
G1 F3000 X103.077 Y114.956 E46.0349
M205 X15 Y15
G0 F7200 X103.077 Y114.39
M205 X12 Y12
G1 F3000 X102.345 Y113.659 E46.08652
M205 X15 Y15
G0 F7200 X102.911 Y113.659
M205 X12 Y12
G1 F3000 X103.077 Y113.825 E46.09823
M205 X15 Y15
G0 F7200 X99.517 Y113.659
M205 X12 Y12
G1 F3000 X107.197 Y121.339 E46.64009
M205 X15 Y15
G0 F7200 X106.631 Y121.339
M205 X12 Y12
G1 F3000 X98.951 Y113.659 E47.18196
M205 X15 Y15
