;FLAVOR:Marlin
;TIME:189
;Filament used: 0.359461m
;Layer height: 0.2
;MINX:90.637
;MINY:108.9
;MINZ:0.3
;MAXX:144.348
;MAXY:126.1
;MAXZ:3.1
;Generated with Cura_SteamEngine main
M140 S60
M105
M190 S60
M104 S230
M105
M109 S230
M82 ;absolute extrusion mode
; AtomStack Cambrian Start G-code
G92 E0 ; Reset Extruder
G28 ; Home all axes
G1 Z2.0 F3000 ; Move Z Axis up little to prevent scratching of Heat Bed
G1 X1 Y20 Z0.2 F5000.0 ; Move to start position
G1 X1 Y200.0 Z0.2 F1500.0 E15 ; Draw the first line
G1 X2 Y200.0 Z0.2 F2000.0 ; Move to side a little
G1 X2 Y20 Z0.3 F1500.0 E30 ; Draw the second line
G92 E0 ; Reset Extruder
G1 Z2.0 F3000 ; Move Z Axis up little to prevent scratching of Heat Bed
G92 E0
G92 E0
G1 F1800 E-2.5
;LAYER_COUNT:15
;LAYER:0
M107
M204 S2000
M205 X30 Y30
G0 F9000 X92.035 Y109.669 Z0.3
G0 X90.637 Y113.146
M205 X15 Y15
;TYPE:SKIRT
G1 F1800 E0
G1 F3000 X90.647 Y112.457 E0.03438
G1 X90.695 Y111.923 E0.06113
G1 X90.822 Y111.401 E0.08793
G1 X91.024 Y110.905 E0.11465
G1 X91.298 Y110.444 E0.1414
G1 X91.638 Y110.029 E0.16817
G1 X92.035 Y109.669 E0.19491
G1 X92.482 Y109.372 E0.22168
G1 X92.967 Y109.144 E0.24842
G1 X93.481 Y108.991 E0.27517
G1 X94.22 Y108.901 E0.31231
G1 X103.58 Y108.9 E0.77929
G1 X104.401 Y108.913 E0.82025
G1 X105.113 Y108.943 E0.85581
G1 X107.893 Y109.022 E0.99456
G1 X110.588 Y109.022 E1.12901
G1 X113.376 Y108.943 E1.26816
G1 X113.871 Y108.918 E1.29289
G1 X114.464 Y108.901 E1.32248
G1 X123.581 Y108.9 E1.77733
G1 X124.387 Y108.913 E1.81755
G1 X125.129 Y108.945 E1.8546
G1 X126.534 Y109.025 E1.92481
G1 X129.295 Y109.102 E2.06261
G1 X131.995 Y109.102 E2.19732
G1 X135.833 Y108.971 E2.38891
G1 X136.604 Y108.93 E2.42743
G1 X138.061 Y108.9 E2.50013
G1 X139.088 Y108.9 E2.55137
G1 X139.759 Y108.909 E2.58485
G1 X140.293 Y108.956 E2.61159
G1 X140.888 Y109.092 E2.64204
G1 X141.397 Y109.261 E2.6688
G1 X142.095 Y109.625 E2.70807
G1 X142.674 Y110.059 E2.74417
G1 X143.179 Y110.578 E2.7803
G1 X143.577 Y111.14 E2.81466
G1 X143.932 Y111.873 E2.85529
G1 X144.138 Y112.575 E2.89179
G1 X144.213 Y113.143 E2.92038
G1 X144.234 Y113.679 E2.94714
G1 X144.221 Y114.85 E3.00556
G1 X144.223 Y117.573 E3.14141
G1 X144.348 Y121.224 E3.32367
G1 X144.319 Y121.956 E3.36022
G1 X144.246 Y122.487 E3.38696
G1 X144.061 Y123.119 E3.41981
G1 X143.782 Y123.719 E3.45282
G1 X143.295 Y124.425 E3.49561
G1 X142.764 Y124.971 E3.53361
G1 X142.12 Y125.441 E3.57339
G1 X141.506 Y125.747 E3.60761
G1 X140.788 Y125.968 E3.64509
G1 X140.169 Y126.083 E3.6765
G1 X139.123 Y126.1 E3.7287
G1 X94.892 Y126.1 E5.93539
G1 X94.194 Y126.09 E5.97022
G1 X93.66 Y126.042 E5.99696
G1 X93.139 Y125.916 E6.02371
G1 X92.642 Y125.713 E6.05049
G1 X92.181 Y125.439 E6.07725
G1 X91.766 Y125.1 E6.10398
G1 X91.406 Y124.702 E6.13075
G1 X91.109 Y124.256 E6.15749
G1 X90.881 Y123.77 E6.18427
G1 X90.729 Y123.256 E6.21101
G1 X90.638 Y122.513 E6.24836
G1 X90.637 Y113.146 E6.71568
M205 X30 Y30
G0 F9000 X91.037 Y113.152
M205 X15 Y15
G1 F3000 X91.047 Y112.463 E6.75006
G1 X91.095 Y111.959 E6.77531
G1 X91.221 Y111.47 E6.80051
G1 X91.422 Y111.006 E6.82573
G1 X91.694 Y110.58 E6.85095
G1 X92.03 Y110.202 E6.87618
G1 X92.421 Y109.881 E6.90142
G1 X92.857 Y109.626 E6.92662
G1 X93.329 Y109.444 E6.95186
G1 X93.823 Y109.337 E6.97708
G1 X94.477 Y109.301 E7.00975
G1 X103.575 Y109.3 E7.46365
G1 X104.293 Y109.31 E7.49948
G1 X105.09 Y109.343 E7.53928
G1 X107.882 Y109.422 E7.67863
G1 X110.599 Y109.422 E7.81418
G1 X113.363 Y109.344 E7.95213
G1 X113.882 Y109.318 E7.97805
G1 X114.475 Y109.301 E8.00765
G1 X123.575 Y109.3 E8.46165
G1 X124.281 Y109.31 E8.49688
G1 X125.107 Y109.344 E8.53812
G1 X126.536 Y109.425 E8.60953
G1 X129.283 Y109.502 E8.74663
G1 X132.009 Y109.502 E8.88263
G1 X135.866 Y109.371 E9.07517
G1 X136.733 Y109.326 E9.11848
G1 X138.061 Y109.3 E9.18475
G1 X139.083 Y109.3 E9.23574
G1 X139.754 Y109.309 E9.26922
G1 X140.615 Y109.422 E9.31254
G1 X141.27 Y109.642 E9.34701
G1 X141.886 Y109.967 E9.38176
G1 X142.433 Y110.38 E9.41596
G1 X142.958 Y110.957 E9.45487
G1 X143.249 Y111.371 E9.48012
G1 X143.561 Y112.022 E9.51614
G1 X143.753 Y112.687 E9.55067
G1 X143.814 Y113.164 E9.57466
G1 X143.834 Y113.675 E9.60017
G1 X143.821 Y114.846 E9.6586
G1 X143.823 Y117.586 E9.7953
G1 X143.948 Y121.237 E9.97755
G1 X143.92 Y121.931 E10.01221
G1 X143.848 Y122.431 E10.03741
G1 X143.633 Y123.091 E10.07204
G1 X143.418 Y123.549 E10.09728
G1 X142.983 Y124.175 E10.13531
G1 X142.477 Y124.691 E10.17137
G1 X141.91 Y125.101 E10.20628
G1 X141.328 Y125.387 E10.23863
G1 X140.686 Y125.581 E10.27209
G1 X140.117 Y125.684 E10.30094
G1 X139.117 Y125.7 E10.35083
G1 X94.898 Y125.7 E12.55693
G1 X94.2 Y125.69 E12.59176
G1 X93.697 Y125.643 E12.61696
G1 X93.207 Y125.517 E12.6422
G1 X92.743 Y125.315 E12.66745
G1 X92.317 Y125.043 E12.69267
G1 X91.939 Y124.708 E12.71786
G1 X91.619 Y124.317 E12.74307
G1 X91.364 Y123.88 E12.76831
G1 X91.181 Y123.409 E12.79352
G1 X91.074 Y122.915 E12.81874
G1 X91.038 Y122.462 E12.84141
G1 X91.037 Y113.152 E13.30589
M205 X30 Y30
G1 F1800 E10.80589
;MESH:speedtest.stl
G0 F9000 X93.572 Y113.152
G0 X94.657 Y113.152
G0 X103.809 Y116.928
G0 X134.579 Y117.4
G1 F1800 E13.30589
G0 F9000 X134.579 Y116.994
M205 X15 Y15
;TYPE:WALL-INNER
G1 F3000 X134.42 Y117.072 E13.31473
G1 X134.237 Y117.1 E13.32396
G1 X124.112 Y117.1 E13.8291
G1 X123.817 Y116.929 E13.84611
G1 X123.678 Y116.721 E13.85859
G1 X123.637 Y116.5 E13.86981
G1 X123.637 Y113.1 E14.03943
G1 X114.837 Y113.1 E14.47847
G1 X114.837 Y116.5 E14.64809
G1 X114.796 Y116.721 E14.65931
G1 X114.657 Y116.929 E14.67179
G1 X114.362 Y117.1 E14.6888
G1 X104.112 Y117.1 E15.20017
G1 X103.817 Y116.929 E15.21719
G1 X103.678 Y116.721 E15.22967
G1 X103.637 Y116.5 E15.24088
G1 X103.637 Y113.1 E15.41051
G1 X94.837 Y113.1 E15.84954
G1 X94.837 Y121.9 E16.28857
G1 X139.774 Y121.9 E18.53049
G1 X139.993 Y121.818 E18.54216
G1 X140.118 Y121.669 E18.55186
G1 X140.153 Y121.53 E18.55901
G1 X140.131 Y121.326 E18.56925
G1 X139.665 Y120.733 E18.60688
G1 X139.268 Y120.083 E18.64487
G1 X138.984 Y119.441 E18.6799
G1 X138.747 Y118.665 E18.72038
G1 X138.649 Y117.853 E18.76118
G1 X138.652 Y116.939 E18.80678
G1 X138.851 Y115.92 E18.85858
G1 X139.224 Y114.968 E18.90959
G1 X139.669 Y114.259 E18.95135
G1 X140.011 Y113.744 E18.9822
G1 X140.037 Y113.456 E18.99662
G1 X139.928 Y113.23 E19.00914
G1 X139.663 Y113.101 E19.02385
G1 X137.124 Y113.1 E19.15052
G1 X136.686 Y113.168 E19.17263
G1 X136.322 Y113.282 E19.19166
G1 X136.006 Y113.444 E19.20938
G1 X135.547 Y113.802 E19.23842
G1 X135.19 Y114.254 E19.26715
G1 X135.021 Y114.579 E19.28543
G1 X134.905 Y114.94 E19.30435
G1 X134.838 Y115.383 E19.3267
G1 X134.835 Y116.56 E19.38542
G1 X134.765 Y116.785 E19.39718
G1 X134.579 Y116.994 E19.41113
M205 X30 Y30
G0 F9000 X134.365 Y116.655
M205 X15 Y15
;TYPE:WALL-OUTER
G1 F3000 X134.272 Y116.698 E19.41625
G1 X124.195 Y116.7 E19.91899
G1 X124.037 Y116.555 E19.92969
G1 X124.037 Y112.7 E20.12202
G1 X114.437 Y112.7 E20.60096
G1 X114.437 Y116.555 E20.79329
G1 X114.377 Y116.643 E20.7986
G1 X114.272 Y116.698 E20.80452
G1 X104.195 Y116.7 E21.30726
G1 X104.037 Y116.555 E21.31796
G1 X104.037 Y112.7 E21.51029
G1 X94.437 Y112.7 E21.98923
G1 X94.437 Y122.3 E22.46818
G1 X139.826 Y122.3 E24.73264
G1 X140.078 Y122.232 E24.74567
G1 X140.256 Y122.128 E24.75595
G1 X140.468 Y121.873 E24.77249
G1 X140.552 Y121.564 E24.78847
G1 X140.52 Y121.243 E24.80456
G1 X140.424 Y121.051 E24.81527
G1 X139.979 Y120.485 E24.85119
G1 X139.645 Y119.942 E24.883
G1 X139.366 Y119.323 E24.91687
G1 X139.143 Y118.603 E24.95448
G1 X139.046 Y117.806 E24.99453
G1 X139.05 Y116.979 E25.03579
G1 X139.235 Y116.03 E25.08403
G1 X139.576 Y115.166 E25.13037
G1 X140.008 Y114.472 E25.17116
G1 X140.279 Y114.112 E25.19364
G1 X140.393 Y113.873 E25.20685
G1 X140.443 Y113.632 E25.21913
G1 X140.435 Y113.378 E25.2318
G1 X140.329 Y113.092 E25.24702
G1 X140.202 Y112.931 E25.25725
G1 X139.947 Y112.763 E25.27249
G1 X139.717 Y112.701 E25.28437
G1 X137.094 Y112.7 E25.41523
G1 X136.595 Y112.777 E25.44042
G1 X136.17 Y112.91 E25.46264
G1 X135.79 Y113.105 E25.48395
G1 X135.263 Y113.516 E25.51729
G1 X134.853 Y114.035 E25.55029
G1 X134.651 Y114.424 E25.57216
G1 X134.514 Y114.848 E25.59439
G1 X134.438 Y115.353 E25.61987
G1 X134.434 Y116.539 E25.67904
G1 X134.365 Y116.655 E25.68577
M205 X30 Y30
G0 F9000 X134.272 Y116.698
G0 X134.174 Y116.698
G0 X134.174 Y117.4
G0 X135.261 Y117.996
M205 X15 Y15
;TYPE:SKIN
G1 F3000 X134.656 Y118.251 E25.71852
G1 X134.322 Y118.295 E25.73533
G1 X124.084 Y118.29 E26.24611
G1 X123.762 Y118.234 E26.26241
G1 X123.425 Y118.111 E26.28031
G1 X122.956 Y117.761 E26.30951
G1 X122.568 Y117.198 E26.34362
G1 X122.441 Y116.632 E26.37256
G1 X122.437 Y114.3 E26.4889
G1 X116.037 Y114.3 E26.8082
G1 X116.033 Y116.632 E26.92455
G1 X115.905 Y117.198 E26.9535
G1 X115.494 Y117.797 E26.98974
G1 X115.058 Y118.1 E27.01623
G1 X114.626 Y118.26 E27.03921
G1 X114.362 Y118.293 E27.05248
G1 X104.119 Y118.293 E27.56351
G1 X103.762 Y118.234 E27.58156
G1 X103.425 Y118.111 E27.59946
G1 X102.956 Y117.761 E27.62866
G1 X102.568 Y117.198 E27.66277
G1 X102.441 Y116.632 E27.69171
G1 X102.437 Y114.3 E27.80805
G1 X96.037 Y114.3 E28.12735
G1 X96.037 Y120.7 E28.44665
G1 X138.23 Y120.697 E30.55166
G1 X137.867 Y119.88 E30.59627
G1 X137.571 Y118.931 E30.64586
G1 X137.449 Y117.96 E30.69469
G1 X137.452 Y116.826 E30.75126
G1 X137.693 Y115.588 E30.81419
G1 X138.194 Y114.303 E30.883
G1 X137.244 Y114.303 E30.93039
G1 X136.764 Y114.41 E30.95493
G1 X136.399 Y114.666 E30.97717
G1 X136.144 Y115.029 E30.9993
G1 X136.041 Y115.5 E31.02335
G1 X136.038 Y116.781 E31.08726
G1 X135.736 Y117.511 E31.12668
G1 X135.261 Y117.996 E31.16055
M205 X30 Y30
G0 F9000 X136.621 Y117.556
M205 X15 Y15
G1 F3000 X136.405 Y117.961 E31.18344
G1 X135.719 Y118.67 E31.23266
G1 X134.874 Y119.031 E31.27851
G1 X134.424 Y119.089 E31.30114
G1 X123.986 Y119.083 E31.8219
G1 X123.622 Y119.024 E31.84029
G1 X123.047 Y118.827 E31.87062
G1 X122.369 Y118.322 E31.9128
G1 X121.82 Y117.526 E31.96104
G1 X121.641 Y116.733 E32.0016
G1 X121.637 Y115.1 E32.08307
G1 X116.837 Y115.1 E32.32254
G1 X116.832 Y116.731 E32.40391
G1 X116.652 Y117.523 E32.44443
G1 X116.11 Y118.316 E32.49235
G1 X115.967 Y118.461 E32.50251
G1 X115.321 Y118.863 E32.54047
G1 X114.762 Y119.05 E32.56988
G1 X114.406 Y119.091 E32.58776
G1 X104.091 Y119.093 E33.10238
G1 X103.633 Y119.026 E33.12547
G1 X103.047 Y118.828 E33.15633
G1 X102.368 Y118.32 E33.19864
G1 X101.82 Y117.524 E33.24685
G1 X101.641 Y116.733 E33.28731
G1 X101.637 Y115.1 E33.36878
G1 X96.837 Y115.1 E33.60825
G1 X96.837 Y119.9 E33.84773
G1 X137.037 Y119.896 E35.85331
G1 X136.778 Y119.063 E35.89683
G1 X136.654 Y118.062 E35.94716
G1 X136.621 Y117.556 E35.97245
M205 X30 Y30
G0 F9000 X136.859 Y115.585
M205 X15 Y15
G1 F2784.2 X136.909 Y115.363 E35.98469
M205 X30 Y30
G0 F9000 X137.606 Y114.704
M205 X15 Y15
G1 F3000 X137.291 Y114.704 E36.0004
G1 X136.928 Y114.785 E36.01896
G1 X136.687 Y114.954 E36.03364
G1 X136.519 Y115.193 E36.04822
G1 X136.441 Y115.547 E36.0663
G1 F2955.7 X136.47 Y116.194 E36.0991
G1 F2857.1 X136.499 Y116.842 E36.13308
G1 F2905.6 X136.069 Y117.735 E36.18413
G1 F3000 X135.49 Y118.329 E36.22552
G1 X134.765 Y118.641 E36.26489
G1 X134.373 Y118.692 E36.28462
G1 X124.018 Y118.685 E36.80123
G1 X123.658 Y118.62 E36.81948
G1 X123.21 Y118.45 E36.84339
G1 X122.663 Y118.042 E36.87743
G1 X122.194 Y117.362 E36.91864
G1 X122.041 Y116.682 E36.95342
G1 X122.037 Y114.7 E37.0523
G1 X116.437 Y114.7 E37.33168
G1 X116.432 Y116.683 E37.43062
G1 X116.277 Y117.361 E37.46532
G1 X115.755 Y118.126 E37.51152
G1 X115.151 Y118.497 E37.54688
G1 X114.694 Y118.655 E37.57101
G1 X114.36 Y118.693 E37.58778
G1 X104.12 Y118.694 E38.09866
G1 X103.659 Y118.62 E38.12195
G1 X103.211 Y118.451 E38.14584
G1 X102.662 Y118.041 E38.18002
G1 X102.194 Y117.362 E38.22116
G1 X102.041 Y116.682 E38.25594
G1 X102.037 Y114.7 E38.35482
G1 X96.437 Y114.7 E38.63421
G1 X96.437 Y120.3 E38.91359
G1 X137.615 Y120.297 E40.96797
G1 X137.484 Y119.999 E40.98421
G1 X137.178 Y119.018 E41.03548
G1 X137.052 Y118.011 E41.08611
G1 F2739.7 X137.014 Y117.044 E41.13898
G1 F2424.2 X137.001 Y116.756 E41.15678
G1 F2479.3 X137.134 Y116.214 E41.19047
G1 F2803.7 X137.267 Y115.672 E41.22026
G1 F3000 X137.298 Y115.515 E41.22824
G1 X137.606 Y114.704 E41.27152
M205 X30 Y30
G0 F9000 X135.001 Y119.459
M205 X15 Y15
G1 F2531.6 X136.441 Y119.458 E41.35665
G1 F2526.3 X136.35 Y119.171 E41.37449
G1 X136.293 Y118.708 E41.40213
G1 F2531.6 X135.967 Y119.041 E41.42968
G1 X135.001 Y119.459 E41.49191
M205 X30 Y30
G0 F9000 X134.98 Y119.459
M205 X15 Y15
G1 F2714.9 X134.449 Y119.492 E41.52124
G1 F2926.8 X133.137 Y119.492 E41.58833
G1 F2919.7 X131.825 Y119.492 E41.65559
G1 X130.513 Y119.491 E41.72284
G1 F2912.6 X129.201 Y119.491 E41.79026
G1 F2905.6 X127.889 Y119.491 E41.85784
G1 F2898.6 X126.577 Y119.49 E41.92559
G1 X125.265 Y119.49 E41.99334
G1 F2891.6 X123.953 Y119.489 E42.06125
G1 F2684.6 X123.551 Y119.458 E42.08373
M205 X30 Y30
G0 F9000 X114.822 Y119.472
M205 X15 Y15
G1 F2816.9 X115.53 Y119.499 E42.12137
G1 F3000 X122.841 Y119.497 E42.48612
G1 F2733.5 X123.551 Y119.458 E42.52505
G1 F2620.1 X122.856 Y119.183 E42.56775
G1 F2864 X122.075 Y118.602 E42.61862
G1 F3000 X121.446 Y117.689 E42.67393
G1 X121.241 Y116.784 E42.72023
G1 X121.237 Y115.5 E42.78429
G1 X117.237 Y115.5 E42.98385
G1 X117.232 Y116.779 E43.04766
G1 X117.027 Y117.684 E43.09395
G1 X116.422 Y118.567 E43.14735
G1 X116.213 Y118.785 E43.16242
G1 X115.53 Y119.211 E43.20258
G1 F2816.9 X114.822 Y119.472 E43.24267
G1 F2790.7 X114.452 Y119.493 E43.26255
G1 F2941.2 X110.979 Y119.493 E43.43928
G1 F2934 X107.506 Y119.493 E43.61645
G1 X104.033 Y119.494 E43.79362
G1 F2690.6 X103.536 Y119.458 E43.82134
G1 F2603 X102.853 Y119.183 E43.86367
G1 F2790.7 X102.073 Y118.6 E43.9159
G1 F2877.7 X101.76 Y118.143 E43.94471
G1 F2912.6 X101.446 Y117.686 E43.9732
G1 F2963 X101.241 Y116.784 E44.01993
G1 F3000 X101.237 Y115.5 E44.08399
G1 X97.237 Y115.5 E44.28355
G1 X97.237 Y119.5 E44.48311
G1 X102.838 Y119.5 E44.76254
G1 F2721.1 X103.536 Y119.458 E44.80101
M205 X30 Y30
G0 F9000 X102.072 Y119.099
M205 X15 Y15
G1 F3000 X101.76 Y118.853 E44.82083
G1 X101.072 Y117.847 E44.88163
G1 X100.841 Y116.835 E44.93342
G1 X100.837 Y115.9 E44.98007
G1 X99.947 Y115.9 E45.02447
G1 X97.637 Y115.9 E45.13972
G1 X97.637 Y119.1 E45.29936
G1 X102.072 Y119.099 E45.52063
M205 X30 Y30
G0 F9000 X101.169 Y118.698
M205 X15 Y15
G1 F3000 X100.7 Y118.011 E45.56213
G1 X100.442 Y116.888 E45.61961
G1 X100.437 Y116.3 E45.64895
G1 X98.037 Y116.3 E45.76869
G1 X98.037 Y118.7 E45.88842
G1 X101.169 Y118.698 E46.04468
M205 X30 Y30
G0 F9000 X100.433 Y118.298
M205 X15 Y15
G1 F3000 X100.3 Y118.062 E46.05819
G1 X100.052 Y116.978 E46.11367
G1 X100.04 Y116.7 E46.12756
G1 X98.437 Y116.7 E46.20753
G1 X98.437 Y118.3 E46.28735
G1 X100.433 Y118.298 E46.38693
M205 X30 Y30
G0 F9000 X99.851 Y117.897
M205 X15 Y15
G1 F3000 X99.669 Y117.1 E46.42772
G1 X98.837 Y117.1 E46.46923
G1 X98.837 Y117.899 E46.50909
G1 X99.351 Y117.898 E46.53474
G1 X99.851 Y117.897 E46.55968
M205 X30 Y30
G0 F9000 X99.35 Y117.499
M205 X15 Y15
G1 F3007.5 X99.236 Y117.499 E46.56535
M205 X30 Y30
G0 F9000 X102.936 Y117.017
M205 X15 Y15
G1 F3000 X102.841 Y116.581 E46.58762
G1 X102.837 Y113.9 E46.72137
G1 X95.637 Y113.9 E47.08058
G1 X95.637 Y121.1 E47.43979
G1 X138.945 Y121.098 E49.60044
G1 X138.577 Y120.498 E49.63555
G1 X138.234 Y119.719 E49.67802
G1 X137.965 Y118.847 E49.72354
G1 X137.847 Y117.909 E49.77071
G1 X137.855 Y116.845 E49.82379
G1 X138.073 Y115.721 E49.88092
G1 X138.513 Y114.589 E49.94151
G1 X138.95 Y113.903 E49.98209
G1 X137.197 Y113.902 E50.06954
G1 X136.613 Y114.032 E50.09939
G1 X136.113 Y114.378 E50.12973
G1 X135.767 Y114.877 E50.16002
