;FLAVOR:Marlin
;TIME:226
;Filament used: 0.543924m
;Layer height: 0.2
;MINX:88.9
;MINY:106.4
;MINZ:0.3
;MAXX:146.08
;MAXY:128.6
;MAXZ:3.1
;Generated with Cura_SteamEngine main
M140 S60
M105
M190 S60
M104 S230
M105
M109 S230
M82 ;absolute extrusion mode
; AtomStack Cambrian Start G-code
G92 E0 ; Reset Extruder
G28 ; Home all axes
G1 Z2.0 F3000 ; Move Z Axis up little to prevent scratching of Heat Bed
G1 X1 Y20 Z0.2 F5000.0 ; Move to start position
G1 X1 Y200.0 Z0.2 F1500.0 E15 ; Draw the first line
G1 X2 Y200.0 Z0.2 F2000.0 ; Move to side a little
G1 X2 Y20 Z0.3 F1500.0 E30 ; Draw the second line
G92 E0 ; Reset Extruder
G1 Z2.0 F3000 ; Move Z Axis up little to prevent scratching of Heat Bed
G92 E0
G92 E0
G1 F1800 E-2.5
;LAYER_COUNT:15
;LAYER:0
M107
M204 S5000
M205 X30 Y30
G0 F9000 X90.298 Y107.169 Z0.3
G0 X88.9 Y110.646
M204 S7500
M205 X50 Y50
;TYPE:SKIRT
G1 F1800 E0
G1 F3000 X88.91 Y109.957 E0.03438
G1 X88.958 Y109.423 E0.06113
G1 X89.085 Y108.901 E0.08793
G1 X89.287 Y108.405 E0.11465
G1 X89.561 Y107.944 E0.1414
G1 X89.901 Y107.529 E0.16817
G1 X90.298 Y107.169 E0.19491
G1 X90.745 Y106.872 E0.22168
G1 X91.23 Y106.644 E0.24842
G1 X91.744 Y106.491 E0.27517
G1 X92.483 Y106.401 E0.31231
G1 X102.592 Y106.4 E0.81665
G1 X103.389 Y106.413 E0.85642
G1 X104.557 Y106.462 E0.91475
G1 X107.338 Y106.54 E1.05354
G1 X110.033 Y106.54 E1.188
G1 X112.79 Y106.461 E1.3256
G1 X113.636 Y106.419 E1.36786
G1 X114.323 Y106.4 E1.40215
G1 X124.084 Y106.4 E1.88913
G1 X124.938 Y106.415 E1.93174
G1 X127.572 Y106.56 E2.06335
G1 X130.311 Y106.637 E2.20005
G1 X133.007 Y106.637 E2.33456
G1 X135.786 Y106.557 E2.47326
G1 X138.334 Y106.416 E2.60057
G1 X139.09 Y106.4 E2.6383
G1 X140.735 Y106.4 E2.72037
G1 X141.394 Y106.409 E2.75325
G1 X141.928 Y106.457 E2.78
G1 X142.479 Y106.583 E2.8082
G1 X142.988 Y106.753 E2.83497
G1 X143.595 Y107.07 E2.86914
G1 X144.039 Y107.371 E2.8959
G1 X144.602 Y107.902 E2.93451
G1 X144.949 Y108.31 E2.96123
G1 X145.263 Y108.827 E2.99141
G1 X145.494 Y109.291 E3.01727
G1 X145.696 Y109.787 E3.04398
G1 X145.856 Y110.439 E3.07748
G1 X145.934 Y111.043 E3.10786
G1 X145.964 Y111.729 E3.14212
G1 X145.863 Y114.654 E3.28814
G1 X145.845 Y117.385 E3.42439
G1 X145.905 Y120.094 E3.55957
G1 X146.08 Y123.419 E3.72569
G1 X146.066 Y124.065 E3.75793
G1 X145.894 Y124.916 E3.80124
G1 X145.749 Y125.432 E3.82798
G1 X145.385 Y126.198 E3.87029
G1 X145.103 Y126.654 E3.89704
G1 X144.656 Y127.179 E3.93144
G1 X144.269 Y127.551 E3.95822
G1 X143.715 Y127.944 E3.99211
G1 X143.107 Y128.25 E4.02607
G1 X142.322 Y128.494 E4.06708
G1 X141.464 Y128.598 E4.1102
G1 X93.161 Y128.6 E6.52005
G1 X92.463 Y128.591 E6.55487
G1 X91.928 Y128.544 E6.58167
G1 X91.407 Y128.418 E6.60841
G1 X90.91 Y128.216 E6.63517
G1 X90.449 Y127.943 E6.6619
G1 X90.033 Y127.604 E6.68868
G1 X89.672 Y127.208 E6.71541
G1 X89.374 Y126.762 E6.74217
G1 X89.146 Y126.276 E6.76895
G1 X88.993 Y125.762 E6.79571
G1 X88.901 Y125.015 E6.83326
G1 X88.9 Y110.646 E7.55013
M204 S5000
M205 X30 Y30
G0 F9000 X89.3 Y110.652
M204 S7500
M205 X50 Y50
G1 F3000 X89.31 Y109.963 E7.58451
G1 X89.358 Y109.459 E7.60977
G1 X89.484 Y108.97 E7.63496
G1 X89.685 Y108.506 E7.66019
G1 X89.957 Y108.08 E7.6854
G1 X90.293 Y107.702 E7.71063
G1 X90.684 Y107.381 E7.73587
G1 X91.12 Y107.126 E7.76107
G1 X91.592 Y106.944 E7.78631
G1 X92.086 Y106.837 E7.81153
G1 X92.74 Y106.801 E7.84421
G1 X102.586 Y106.8 E8.33542
G1 X103.283 Y106.81 E8.3702
G1 X104.534 Y106.862 E8.43267
G1 X107.326 Y106.94 E8.57202
G1 X110.044 Y106.94 E8.70762
G1 X112.82 Y106.86 E8.84617
G1 X113.72 Y106.816 E8.89113
G1 X114.229 Y106.801 E8.91653
G1 X124.078 Y106.8 E9.4079
G1 X124.784 Y106.81 E9.44313
G1 X127.537 Y106.96 E9.58068
G1 X130.299 Y107.037 E9.71853
G1 X133.018 Y107.037 E9.85418
G1 X135.782 Y106.958 E9.99213
G1 X138.356 Y106.815 E10.12075
G1 X139.09 Y106.8 E10.15737
G1 X140.73 Y106.8 E10.23919
G1 X141.389 Y106.809 E10.27207
G1 X142.235 Y106.922 E10.31466
G1 X142.86 Y107.133 E10.34757
G1 X143.396 Y107.417 E10.37783
G1 X143.814 Y107.702 E10.40307
G1 X144.317 Y108.183 E10.43779
G1 X144.643 Y108.569 E10.463
G1 X144.905 Y109.005 E10.48838
G1 X145.136 Y109.469 E10.51423
G1 X145.324 Y109.938 E10.53944
G1 X145.465 Y110.523 E10.56946
G1 X145.534 Y111.06 E10.59648
G1 X145.563 Y111.733 E10.63008
G1 X145.463 Y114.638 E10.7751
G1 X145.445 Y117.392 E10.9125
G1 X145.504 Y120.093 E11.04729
G1 X145.681 Y123.441 E11.21455
G1 X145.665 Y124.03 E11.24395
G1 X145.502 Y124.837 E11.28502
G1 X145.363 Y125.323 E11.31024
G1 X145.031 Y126.013 E11.34844
G1 X144.762 Y126.442 E11.37371
G1 X144.358 Y126.912 E11.40463
G1 X143.992 Y127.261 E11.42986
G1 X143.38 Y127.666 E11.46647
G1 X142.927 Y127.892 E11.49173
G1 X142.235 Y128.102 E11.52781
G1 X141.45 Y128.198 E11.56726
G1 X93.166 Y128.2 E13.97616
G1 X92.468 Y128.191 E14.01099
G1 X91.964 Y128.144 E14.03624
G1 X91.474 Y128.019 E14.06147
G1 X91.01 Y127.818 E14.0867
G1 X90.584 Y127.547 E14.11189
G1 X90.205 Y127.212 E14.13712
G1 X89.884 Y126.821 E14.16236
G1 X89.629 Y126.385 E14.18756
G1 X89.445 Y125.914 E14.21279
G1 X89.338 Y125.42 E14.238
G1 X89.301 Y124.967 E14.26068
G1 X89.3 Y110.652 E14.97486
M204 S5000
M205 X30 Y30
G1 F1800 E12.47486
;MESH:speedtest.stl
G0 F9000 X91.835 Y110.652
G0 X92.92 Y110.652
G0 X102.819 Y116.428
G0 X114.282 Y116.9
G1 F1800 E14.97486
G0 F9000 X114.282 Y116.527
M204 S7500
M205 X50 Y50
;TYPE:WALL-INNER
G1 F3000 X114.064 Y116.6 E14.98633
G1 X103.17 Y116.6 E15.52983
G1 X102.942 Y116.517 E15.54194
G1 X102.794 Y116.395 E15.55151
G1 X102.647 Y116.079 E15.56889
G1 X102.647 Y110.601 E15.84219
G1 X93.101 Y110.601 E16.31844
G1 X93.101 Y124.399 E17.00683
G1 X141.367 Y124.399 E19.41483
G1 X141.499 Y124.373 E19.42154
G1 X141.702 Y124.198 E19.43491
G1 X141.806 Y123.997 E19.4462
G1 X141.891 Y123.591 E19.4669
G1 X141.856 Y123.157 E19.48862
G1 X141.77 Y122.916 E19.50139
G1 X141.507 Y122.469 E19.52726
G1 X141.101 Y121.654 E19.57269
G1 X140.777 Y120.804 E19.61807
G1 X140.511 Y119.836 E19.66816
G1 X140.35 Y118.913 E19.7149
G1 X140.27 Y117.973 E19.76197
G1 X140.275 Y116.919 E19.81455
G1 X140.361 Y116.004 E19.8604
G1 X140.548 Y115.003 E19.91121
G1 X140.791 Y114.147 E19.9556
G1 X141.213 Y113.074 E20.01312
G1 X141.614 Y112.327 E20.05542
G1 X141.72 Y112.018 E20.07172
G1 X141.77 Y111.687 E20.08842
G1 X141.763 Y111.342 E20.10564
G1 X141.71 Y111.093 E20.11834
G1 X141.551 Y110.774 E20.13612
G1 X141.457 Y110.676 E20.14289
G1 X141.309 Y110.601 E20.15117
G1 X138.594 Y110.6 E20.28662
G1 X138.365 Y110.638 E20.2982
G1 X137.894 Y110.797 E20.32301
G1 X137.603 Y110.974 E20.34
G1 X137.157 Y111.353 E20.3692
G1 X136.779 Y111.88 E20.40155
G1 X136.512 Y112.392 E20.43036
G1 X136.312 Y112.949 E20.45989
G1 X136.171 Y113.538 E20.4901
G1 X136.086 Y114.29 E20.52786
G1 X136.084 Y116.057 E20.61602
G1 X136.05 Y116.208 E20.62374
G1 X135.953 Y116.378 E20.6335
G1 X135.789 Y116.519 E20.64429
G1 X135.568 Y116.6 E20.65604
G1 X124.667 Y116.6 E21.19989
G1 X124.451 Y116.527 E21.21126
G1 X124.211 Y116.285 E21.22827
G1 X124.145 Y116.081 E21.23897
G1 X124.14 Y110.601 E21.51236
G1 X114.594 Y110.601 E21.98862
G1 X114.594 Y116 E22.25797
G1 X114.522 Y116.285 E22.27264
G1 X114.282 Y116.527 E22.28964
M204 S5000
M205 X30 Y30
G0 F9000 X114.156 Y116.118
M204 S7500
M205 X50 Y50
;TYPE:WALL-OUTER
G1 F3000 X114.027 Y116.198 E22.29722
G1 X103.21 Y116.197 E22.83688
G1 X103.118 Y116.154 E22.84194
G1 X103.049 Y116.035 E22.84881
G1 X103.047 Y110.201 E23.13987
G1 X92.701 Y110.201 E23.65603
G1 X92.701 Y124.799 E24.38433
G1 X141.405 Y124.799 E26.81418
G1 X141.643 Y124.753 E26.82627
G1 X141.854 Y124.628 E26.83851
G1 X142.034 Y124.427 E26.85197
G1 X142.186 Y124.133 E26.86848
G1 X142.295 Y123.617 E26.89479
G1 X142.25 Y123.073 E26.92203
G1 X142.134 Y122.746 E26.93934
G1 X141.845 Y122.253 E26.96785
G1 X141.459 Y121.476 E27.01113
G1 X141.151 Y120.663 E27.05451
G1 X140.905 Y119.767 E27.10086
G1 X140.746 Y118.852 E27.1472
G1 X140.668 Y117.939 E27.19291
G1 X140.673 Y116.956 E27.24195
G1 X140.759 Y116.042 E27.28775
G1 X140.933 Y115.112 E27.33496
G1 X141.182 Y114.239 E27.38025
G1 X141.565 Y113.264 E27.43251
G1 X141.982 Y112.488 E27.47646
G1 X142.11 Y112.114 E27.49618
G1 X142.171 Y111.713 E27.51642
G1 X142.162 Y111.296 E27.53723
G1 X142.091 Y110.96 E27.55436
G1 X141.882 Y110.542 E27.57768
G1 X141.707 Y110.358 E27.59034
G1 X141.363 Y110.201 E27.60921
G1 X138.562 Y110.2 E27.74895
G1 X138.268 Y110.248 E27.76381
G1 X137.767 Y110.419 E27.79023
G1 X137.368 Y110.649 E27.8132
G1 X136.861 Y111.08 E27.8464
G1 X136.437 Y111.67 E27.88265
G1 X136.145 Y112.231 E27.9142
G1 X135.928 Y112.834 E27.94617
G1 X135.776 Y113.469 E27.97875
G1 X135.686 Y114.268 E28.01886
G1 X135.686 Y116.019 E28.10622
G1 X135.63 Y116.14 E28.11287
G1 X135.521 Y116.198 E28.11903
G1 X124.705 Y116.198 E28.65865
G1 X124.577 Y116.118 E28.66618
G1 X124.54 Y116.04 E28.67048
G1 X124.54 Y110.201 E28.96179
G1 X114.194 Y110.201 E29.47796
G1 X114.187 Y116.053 E29.76991
G1 X114.156 Y116.118 E29.77351
M204 S5000
M205 X30 Y30
G0 F9000 X114.027 Y116.198
G0 X113.978 Y116.198
G0 X113.978 Y116.9
G0 X115.496 Y120.36
M204 S7500
M205 X50 Y50
;TYPE:SKIN
G1 F3000 X115.871 Y120.395 E29.7923
G1 X122.533 Y120.393 E30.12467
G1 X123.238 Y120.365 E30.15987
G1 X122.487 Y120.035 E30.20079
G1 X121.424 Y119.256 E30.26654
G1 X120.614 Y118.114 E30.33639
G1 X120.151 Y116.676 E30.41176
G1 X120.144 Y114.601 E30.51528
G1 X118.587 Y114.601 E30.59296
G1 X118.575 Y116.57 E30.6912
G1 X118.207 Y117.957 E30.76279
G1 X117.433 Y119.106 E30.83191
G1 X116.476 Y119.879 E30.89328
G1 X115.97 Y120.174 E30.9225
G1 X115.496 Y120.36 E30.94791
M204 S5000
M205 X30 Y30
G0 F9000 X116.968 Y119.994
M204 S7500
M205 X50 Y50
G1 F3000 X121.753 Y119.994 E31.18663
G1 X121.134 Y119.54 E31.22493
G1 F2941.2 X120.842 Y119.126 E31.25071
G1 F2830.2 X120.55 Y118.711 E31.27754
G1 F2727.3 X120.258 Y118.297 E31.30535
G1 F2631.6 X120.078 Y117.792 E31.33584
G1 F2542.4 X119.898 Y117.286 E31.36746
G1 F2459 X119.718 Y116.78 E31.40014
G1 F2201.8 X119.658 Y116.694 E31.40727
G1 F2027 X119.657 Y116.16 E31.4467
G1 F2037.4 X119.656 Y115.626 E31.48593
G1 F2051.3 X119.655 Y115.092 E31.52489
G1 F2054.8 X119.076 Y115.093 E31.56707
G1 F2047.8 X119.072 Y115.87 E31.62386
G1 F2030.5 X119.067 Y116.647 E31.68114
G1 F2201.8 X118.978 Y116.797 E31.69299
G1 F2542.4 X118.773 Y117.47 E31.73441
G1 F2830.2 X118.567 Y118.143 E31.77163
G1 F3000 X117.733 Y119.381 E31.8461
G1 X116.968 Y119.994 E31.89501
M204 S5000
M205 X30 Y30
G0 F9000 X118.903 Y119.151
M204 S7500
M205 X50 Y50
G1 F2474.2 X119.829 Y119.15 E31.95102
G1 X119.559 Y118.767 E31.97937
G1 X119.385 Y118.361 E32.00609
G1 X119.311 Y118.546 E32.01814
G1 X118.903 Y119.151 E32.06229
M204 S5000
M205 X30 Y30
G0 F9000 X119.355 Y117.081
M204 S7500
M205 X50 Y50
G1 F3000 X118.929 Y118.32 E32.12765
G1 X118.069 Y119.593 E32.2043
G1 X120.681 Y119.593 E32.33461
G1 X119.902 Y118.485 E32.40218
G1 X119.795 Y118.19 E32.41784
G1 X119.355 Y117.081 E32.47736
M204 S5000
M205 X30 Y30
G0 F9000 X136.314 Y116.828
G0 X136.427 Y116.339
M204 S7500
M205 X50 Y50
G1 F3000 X136.261 Y116.635 E32.49429
G1 X135.991 Y116.867 E32.51205
G1 X135.633 Y117 E32.53111
G1 X124.597 Y117 E33.0817
G1 X124.231 Y116.861 E33.10123
G1 X124.02 Y116.697 E33.11456
G1 X123.858 Y116.474 E33.12831
G1 X123.742 Y116.088 E33.14842
G1 X123.74 Y111.001 E33.40221
G1 X114.994 Y111.001 E33.83855
G1 X114.994 Y116.091 E34.09249
G1 X114.883 Y116.459 E34.11167
G1 X114.713 Y116.697 E34.12626
G1 X114.476 Y116.878 E34.14114
G1 X114.135 Y116.998 E34.15917
G1 X103.102 Y116.997 E34.70961
G1 X102.736 Y116.863 E34.72906
G1 X102.514 Y116.678 E34.74348
G1 X102.341 Y116.426 E34.75873
G1 X102.249 Y116.135 E34.77395
G1 X102.247 Y111.001 E35.03009
G1 X93.501 Y111.001 E35.46643
G1 X93.501 Y123.999 E36.1149
G1 X141.332 Y123.998 E38.5012
G1 X141.426 Y123.858 E38.50961
G1 X141.487 Y123.563 E38.52464
G1 X141.468 Y123.325 E38.53655
G1 X141.406 Y123.088 E38.54877
G1 X141.155 Y122.659 E38.57357
G1 X140.71 Y121.757 E38.62375
G1 X140.373 Y120.855 E38.67179
G1 X140.116 Y119.905 E38.72089
G1 X139.952 Y118.955 E38.76899
G1 X139.87 Y118.008 E38.81641
G1 X139.876 Y116.881 E38.87264
G1 X139.972 Y115.893 E38.92216
G1 X140.16 Y114.899 E38.97263
G1 X140.429 Y113.967 E39.02103
G1 X140.808 Y112.994 E39.07312
G1 X141.245 Y112.166 E39.11983
G1 X141.368 Y111.665 E39.14557
G1 X141.323 Y111.216 E39.16808
G1 X141.202 Y111.001 E39.18039
G1 X138.642 Y111.001 E39.30811
G1 X138.053 Y111.169 E39.33867
G1 X137.838 Y111.3 E39.35123
G1 X137.456 Y111.624 E39.37622
G1 X137.12 Y112.091 E39.40492
G1 X136.879 Y112.554 E39.43096
G1 X136.694 Y113.077 E39.45864
G1 X136.566 Y113.609 E39.48594
G1 X136.487 Y114.314 E39.52133
G1 X136.484 Y116.098 E39.61033
G1 X136.427 Y116.339 E39.62269
M204 S5000
M205 X30 Y30
G0 F9000 X137.849 Y117.904
M204 S7500
M205 X50 Y50
G1 F3000 X136.998 Y118.635 E39.67866
G1 X135.907 Y118.978 E39.73571
G1 X124.227 Y118.996 E40.31843
G1 X123.29 Y118.636 E40.36851
G1 X122.583 Y118.119 E40.41221
G1 X122.054 Y117.374 E40.45779
G1 X121.754 Y116.433 E40.50707
G1 X121.74 Y113.001 E40.67829
G1 X116.994 Y113.001 E40.91507
G1 X116.983 Y116.339 E41.08161
G1 X116.727 Y117.298 E41.13113
G1 X116.233 Y118.02 E41.17477
G1 X115.566 Y118.567 E41.21781
G1 X115.294 Y118.718 E41.23333
G1 X114.418 Y118.978 E41.27892
G1 X102.741 Y119 E41.86149
G1 X101.726 Y118.608 E41.91577
G1 X100.995 Y117.994 E41.9634
G1 X100.523 Y117.284 E42.00593
G1 X100.274 Y116.49 E42.04745
G1 X100.251 Y113.001 E42.22152
G1 X95.501 Y113.001 E42.4585
G1 X95.502 Y121.997 E42.90731
G1 X138.662 Y121.996 E45.06057
G1 X138.469 Y121.476 E45.08824
G1 X138.157 Y120.323 E45.14783
G1 X137.977 Y119.293 E45.2
G1 X137.849 Y117.904 E45.26959
M204 S5000
M205 X30 Y30
G0 F9000 X136.917 Y120.706
M204 S7500
M205 X50 Y50
G1 F2079.7 X136.799 Y120.047 E45.31777
G1 F2189.8 X136.127 Y120.221 E45.36522
G1 F2316.6 X135.623 Y120.222 E45.39778
G1 F2321.1 X135.119 Y120.223 E45.43028
G1 F2325.6 X134.615 Y120.224 E45.46272
G1 X134.111 Y120.225 E45.49515
G1 F2330.1 X133.607 Y120.226 E45.52753
G1 F2334.6 X133.103 Y120.227 E45.55984
G1 F2339.2 X132.599 Y120.228 E45.59208
G1 F2343.8 X132.095 Y120.229 E45.62427
G1 F2348.3 X131.591 Y120.23 E45.65639
G1 X131.087 Y120.231 E45.68851
G1 F2352.9 X130.583 Y120.232 E45.72057
G1 F2357.6 X130.079 Y120.233 E45.75257
G1 F2362.2 X129.575 Y120.234 E45.7845
G1 F2366.9 X129.071 Y120.235 E45.81638
G1 F2371.5 X128.567 Y120.236 E45.84818
G1 X128.063 Y120.237 E45.87999
G1 F2376.2 X127.559 Y120.238 E45.91174
G1 F2381 X127.055 Y120.239 E45.94342
G1 F2385.7 X126.551 Y120.24 E45.97504
G1 F2390.4 X126.047 Y120.241 E46.0066
G1 F2395.2 X125.543 Y120.242 E46.03809
G1 X125.039 Y120.243 E46.06958
G1 F2400 X124.535 Y120.244 E46.10101
G1 F2404.8 X124.031 Y120.245 E46.13238
G1 F2469.1 X123.374 Y119.972 E46.17551
G1 F2603 X122.706 Y119.698 E46.21702
G1 F2752.3 X122.21 Y119.335 E46.25045
G1 F2912.6 X121.714 Y118.972 E46.28203
G1 F3000 X120.977 Y117.936 E46.34546
G1 X120.554 Y116.614 E46.41471
G1 X120.543 Y114.201 E46.5351
G1 X118.189 Y114.201 E46.65254
G1 X118.175 Y116.509 E46.76769
G1 X117.842 Y117.787 E46.83358
G1 X117.135 Y118.831 E46.89648
G1 X116.275 Y119.532 E46.95183
G1 X115.769 Y119.826 E46.98103
G1 F2898.6 X115.194 Y120.023 E47.01242
G1 F2702.7 X114.618 Y120.221 E47.04615
G1 F2620.1 X113.619 Y120.223 E47.10321
G1 X112.62 Y120.225 E47.16028
G1 F2625.8 X111.621 Y120.227 E47.21722
G1 F2631.6 X110.622 Y120.229 E47.27404
G1 X109.623 Y120.231 E47.33086
G1 F2637.4 X108.624 Y120.234 E47.38755
G1 F2643.2 X107.625 Y120.236 E47.44412
G1 X106.626 Y120.238 E47.50069
G1 F2649 X105.627 Y120.24 E47.55713
G1 F2654.9 X104.628 Y120.242 E47.61345
G1 X103.629 Y120.244 E47.66977
G1 F2660.8 X102.63 Y120.247 E47.72597
G1 F2714.9 X102.121 Y120.051 E47.75604
